src/images/icon-computers.svg

<svg width="35" height="35" viewBox="0 0 35 35" fill="none" xmlns="http://www.w3.org/2000/svg">
<path d="M20.1996 13.8H3.59961V24.4C11.7996 24.4 15.9996 24.4 20.1996 24.4V13.8V13.8Z" stroke="#999999" stroke-width="1.44" stroke-miterlimit="22.9256" stroke-linecap="round" stroke-linejoin="round"/>
<path d="M20.8002 16.3C27.2002 16.3 28.8002 16.3 33.7002 16.3V1H9.7002V13.2" stroke="#999999" stroke-width="1.44" stroke-miterlimit="22.9256" stroke-linecap="round" stroke-linejoin="round"/>
<path d="M22 20.0001V16.6001" stroke="#999999" stroke-width="1.44" stroke-miterlimit="22.9256" stroke-linecap="round" stroke-linejoin="round"/>
<path d="M20.7002 20.6001H27.6002" stroke="#999999" stroke-width="1.44" stroke-miterlimit="22.9256" stroke-linecap="round" stroke-linejoin="round"/>
<path d="M27.7 23.3H33.1C33.5 23.3 33.8 23.6 33.8 24V33.5C33.8 33.9 33.5 34.2001 33.1 34.2001H27.7C27.3 34.2001 27 33.9 27 33.5V24C27 23.6 27.3 23.3 27.7 23.3Z" stroke="#999999" stroke-width="1.44" stroke-miterlimit="22.9256" stroke-linecap="round" stroke-linejoin="round"/>
<path d="M23.5996 20.0001V16.6001" stroke="#999999" stroke-width="1.44" stroke-miterlimit="22.9256" stroke-linecap="round" stroke-linejoin="round"/>
<path d="M1 27.7001C8.6 27.7001 19 27.7001 22.8 27.7001" stroke="#999999" stroke-width="1.44" stroke-miterlimit="22.9256" stroke-linecap="round" stroke-linejoin="round"/>
</svg>

<?xml version="1.0" encoding="utf-8"?>
<!-- Generator: Adobe Illustrator 24.1.0, SVG Export Plug-In . SVG Version: 6.00 Build 0)  -->
<svg version="1.1" id="Layer_1" xmlns="http://www.w3.org/2000/svg" xmlns:xlink="http://www.w3.org/1999/xlink" x="0px" y="0px"
	 viewBox="0 0 35 35" style="enable-background:new 0 0 35 35;" xml:space="preserve">
<style type="text/css">
	.st0{fill:none;stroke:#FFFFFF;stroke-width:1.44;stroke-linecap:round;stroke-linejoin:round;stroke-miterlimit:22.9256;}
</style>
<path class="st0" d="M20.2,13.8H3.6v10.6c8.2,0,12.4,0,16.6,0V13.8L20.2,13.8z"/>
<path class="st0" d="M20.8,16.3c6.4,0,8,0,12.9,0V1h-24v12.2"/>
<path class="st0" d="M22,20v-3.4"/>
<path class="st0" d="M20.7,20.6h6.9"/>
<path class="st0" d="M27.7,23.3h5.4c0.4,0,0.7,0.3,0.7,0.7v9.5c0,0.4-0.3,0.7-0.7,0.7h-5.4c-0.4,0-0.7-0.3-0.7-0.7V24
	C27,23.6,27.3,23.3,27.7,23.3z"/>
<path class="st0" d="M23.6,20v-3.4"/>
<path class="st0" d="M1,27.7c7.6,0,18,0,21.8,0"/>
</svg>
